; generated by PrusaSlicer 2.9.4 on 2026-03-30 at 20:31:54 UTC

; 

; external perimeters extrusion width = 0.42mm
; perimeters extrusion width = 0.44mm
; infill extrusion width = 0.44mm
; solid infill extrusion width = 0.44mm
; top infill extrusion width = 0.40mm
; first layer extrusion width = 0.42mm


; printing object casefull.stl id:0 copy 0
; stop printing object casefull.stl id:0 copy 0

;TYPE:Custom
; Klipper Start G-code

G90
M83

M104 S150
M140 S60
G4 S30

G28
BED_MESH_PROFILE LOAD=default

G1 Z50 F240
G1 X2 Y10 F3000

M104 S220
M190 S60
M109 S220

G1 Z0.28 F240
G92 E0

; Prime line
G1 X2 Y140 E10 F1500
G1 X2.3 Y140 F5000
G92 E0
G1 X2.3 Y20 E10 F1200
G92 E0

; Second line
G1 X4.6 Y140 F5000
G1 X4.6 Y20 E10 F1200
G92 E0

; L shape
G1 X25 Y5 F1500
G1 X5 Y5 E5 F1200
G1 X5 Y25 E5 F1200
G92 E0
G21 ; set units to millimeters
G90 ; use absolute coordinates
M83 ; use relative distances for extrusion
; Filament gcode
M107
;LAYER_CHANGE
;Z:0.2
;HEIGHT:0.2
G1 E-7 F3600
G1 Z.2 F9000
G1 X56.393 Y67.547
G1 E7 F2400
M204 S500
;TYPE:Skirt/Brim
;WIDTH:0.42
G1 F1200
G1 X57.167 Y67.089 E.0282
G1 X59.289 Y66.21 E.07202
G1 X60.508 Y65.968 E.03897
G1 X169.492 Y65.968 E3.41712
G1 X170.711 Y66.21 E.03897
G1 X172.833 Y67.089 E.07202
G1 X174.1 Y68.04 E.04967
G1 X174.558 Y68.815 E.02823
G1 X175.437 Y70.936 E.07199
G1 X175.68 Y72.156 E.039
G1 X175.68 Y157.845 E2.68672
G1 X175.437 Y159.065 E.039
G1 X174.558 Y161.187 E.07202
G1 X173.607 Y162.454 E.04967
G1 X172.833 Y162.912 E.0282
G1 X170.711 Y163.791 E.07202
G1 X169.492 Y164.034 E.03897
G1 X60.508 Y164.034 E3.41712
G1 X59.289 Y163.791 E.03897
G1 X57.167 Y162.912 E.07202
G1 X55.9 Y161.961 E.04967
G1 X55.442 Y161.187 E.0282
G1 X54.563 Y159.065 E.07202
G1 X54.32 Y157.845 E.039
G1 X54.32 Y72.156 E2.68672
G1 X54.563 Y70.936 E.039
G1 X55.442 Y68.815 E.07199
G1 X56.357 Y67.595 E.04782
G1 E-4.9 F3600
;WIPE_START
G1 F7200
G1 X56.393 Y67.547 E-.0285
G1 X57.167 Y67.089 E-.42719
G1 X59.289 Y66.21 E-1.091
G1 X60.432 Y65.983 E-.55331
;WIPE_END
; printing object casefull.stl id:0 copy 0
G1 X150.928 Y149.445 F9000
G1 E7 F2400
;TYPE:Perimeter
;WIDTH:0.419999
G1 F1200
G1 X151.395 Y149.041 E.01936
G1 X152.013 Y148.691 E.02227
G1 X152.686 Y148.468 E.02223
G1 X153.341 Y148.385 E.0207
G1 X154.083 Y148.43 E.02331
G1 X154.783 Y148.62 E.02274
G1 X155.418 Y148.939 E.02228
G1 X155.978 Y149.375 E.02225
G1 X156.442 Y149.912 E.02225
G1 X156.793 Y150.529 E.02226
G1 X157.016 Y151.203 E.02226
G1 X157.104 Y151.908 E.02228
G1 X157.052 Y152.616 E.02226
G1 X156.863 Y153.3 E.02225
G1 X156.545 Y153.935 E.02227
G1 X156.109 Y154.495 E.02225
G1 X155.571 Y154.959 E.02228
G1 X154.954 Y155.31 E.02226
G1 X154.28 Y155.533 E.02226
G1 X153.576 Y155.62 E.02224
G1 X152.868 Y155.569 E.02226
G1 X152.183 Y155.38 E.02228
G1 X151.549 Y155.062 E.02224
G1 X150.989 Y154.625 E.02227
G1 X150.525 Y154.088 E.02225
G1 X150.174 Y153.471 E.02226
G1 X149.951 Y152.797 E.02226
G1 X149.863 Y152.093 E.02225
G1 X149.915 Y151.385 E.02226
G1 X150.103 Y150.7 E.02227
G1 X150.422 Y150.066 E.02225
G1 X150.858 Y149.506 E.02225
G1 X150.883 Y149.484 E.00104
G1 X151.192 Y149.709 F9000
G1 F1200
G1 X151.634 Y149.333 E.01819
G1 X152.19 Y149.024 E.01994
G1 X152.796 Y148.828 E.01997
G1 X153.378 Y148.76 E.01837
G1 X154.052 Y148.806 E.02118
G1 X154.674 Y148.981 E.02026
G1 X155.24 Y149.271 E.01994
G1 X155.739 Y149.667 E.01997
G1 X156.151 Y150.151 E.01993
G1 X156.46 Y150.707 E.01994
G1 X156.655 Y151.313 E.01996
G1 X156.728 Y151.945 E.01995
G1 X156.677 Y152.579 E.01994
G1 X156.503 Y153.191 E.01995
G1 X156.212 Y153.757 E.01995
G1 X155.817 Y154.256 E.01995
G1 X155.332 Y154.668 E.01995
G1 X154.776 Y154.977 E.01994
G1 X154.171 Y155.172 E.01993
G1 X153.539 Y155.245 E.01995
G1 X152.905 Y155.194 E.01994
G1 X152.293 Y155.019 E.01996
G1 X151.727 Y154.729 E.01994
G1 X151.228 Y154.334 E.01995
G1 X150.816 Y153.849 E.01995
G1 X150.507 Y153.293 E.01994
G1 X150.312 Y152.688 E.01993
G1 X150.238 Y152.056 E.01995
G1 X150.29 Y151.422 E.01995
G1 X150.464 Y150.81 E.01995
G1 X150.754 Y150.244 E.01994
G1 X151.147 Y149.748 E.01984
G1 X151.455 Y149.972 F9000
;TYPE:External perimeter
G1 F1200
G1 X151.874 Y149.624 E.01708
G1 X152.368 Y149.356 E.01762
G1 X152.905 Y149.189 E.01763
G1 X153.415 Y149.135 E.01608
G1 X154.022 Y149.182 E.01909
G1 X154.564 Y149.342 E.01772
G1 X155.062 Y149.604 E.01764
G1 X155.499 Y149.958 E.01763
G1 X155.859 Y150.391 E.01766
G1 X156.128 Y150.885 E.01764
G1 X156.294 Y151.422 E.01762
G1 X156.353 Y151.982 E.01766
G1 X156.302 Y152.542 E.01763
G1 X156.142 Y153.081 E.01763
G1 X155.88 Y153.579 E.01764
G1 X155.526 Y154.016 E.01763
G1 X155.093 Y154.376 E.01766
G1 X154.599 Y154.644 E.01762
G1 X154.061 Y154.811 E.01766
G1 X153.502 Y154.87 E.01762
G1 X152.942 Y154.818 E.01763
G1 X152.402 Y154.659 E.01765
G1 X151.904 Y154.397 E.01764
G1 X151.467 Y154.042 E.01765
G1 X151.108 Y153.61 E.01761
G1 X150.839 Y153.115 E.01766
G1 X150.672 Y152.578 E.01763
G1 X150.614 Y152.019 E.01762
G1 X150.665 Y151.459 E.01763
G1 X150.825 Y150.919 E.01766
G1 X151.087 Y150.421 E.01764
G1 X151.415 Y150.016 E.01634
G1 E-4.9 F3600
;WIPE_START
G1 F7200
G1 X151.455 Y149.972 E-.02825
G1 X151.874 Y149.624 E-.25872
G1 X152.368 Y149.356 E-.26696
G1 X152.905 Y149.189 E-.26712
G1 X153.415 Y149.135 E-.2436
G1 X154.022 Y149.182 E-.28919
G1 X154.564 Y149.342 E-.26843
G1 X155.062 Y149.604 E-.26729
G1 X155.407 Y149.883 E-.21044
;WIPE_END
G1 X164.901 Y154.772 F9000
G1 E7 F2400
;TYPE:Perimeter
G1 F1200
G1 X164.93 Y154.684 E.00291
G1 X165.206 Y154.207 E.01728
G1 X165.569 Y153.793 E.01726
G1 X166.007 Y153.457 E.01731
G1 X166.51 Y153.211 E.01756
G1 X167.053 Y153.069 E.0176
G1 X167.584 Y153.035 E.01668
G1 X168.13 Y153.107 E.01727
G1 X168.652 Y153.284 E.01728
G1 X169.129 Y153.56 E.01728
G1 X169.544 Y153.923 E.01729
G1 X169.879 Y154.361 E.01729
G1 X170.123 Y154.855 E.01728
G1 X170.265 Y155.387 E.01726
G1 X170.301 Y155.937 E.01728
G1 X170.229 Y156.484 E.0173
G1 X170.052 Y157.006 E.01728
G1 X169.777 Y157.483 E.01726
G1 X169.413 Y157.897 E.01728
G1 X168.976 Y158.233 E.01728
G1 X168.481 Y158.477 E.0173
G1 X167.949 Y158.619 E.01726
G1 X167.399 Y158.655 E.01728
G1 X166.852 Y158.583 E.0173
G1 X166.33 Y158.406 E.01728
G1 X165.853 Y158.13 E.01728
G1 X165.439 Y157.767 E.01726
G1 X165.103 Y157.329 E.01731
G1 X164.86 Y156.835 E.01726
G1 X164.717 Y156.303 E.01727
G1 X164.678 Y155.785 E.01629
G1 X164.753 Y155.206 E.01831
G1 X164.881 Y154.829 E.01248
G1 X165.245 Y154.915 F9000
G1 F1200
G1 X165.263 Y154.862 E.00175
G1 X165.497 Y154.446 E.01497
G1 X165.809 Y154.084 E.01498
G1 X166.185 Y153.79 E.01497
G1 X166.616 Y153.573 E.01513
G1 X167.09 Y153.444 E.0154
G1 X167.547 Y153.41 E.01437
G1 X168.021 Y153.468 E.01497
G1 X168.59 Y153.679 E.01903
G1 X168.89 Y153.851 E.01084
G1 X169.252 Y154.162 E.01496
G1 X169.547 Y154.538 E.01498
G1 X169.762 Y154.964 E.01496
G1 X169.89 Y155.424 E.01497
G1 X169.926 Y155.9 E.01497
G1 X169.869 Y156.374 E.01497
G1 X169.658 Y156.944 E.01906
G1 X169.485 Y157.244 E.01086
G1 X169.174 Y157.606 E.01496
G1 X168.798 Y157.9 E.01497
G1 X168.372 Y158.116 E.01498
G1 X167.912 Y158.244 E.01497
G1 X167.436 Y158.28 E.01497
G1 X166.962 Y158.222 E.01497
G1 X166.508 Y158.073 E.01498
G1 X166.092 Y157.839 E.01497
G1 X165.73 Y157.528 E.01496
G1 X165.436 Y157.152 E.01497
G1 X165.22 Y156.726 E.01498
G1 X165.092 Y156.266 E.01497
G1 X165.056 Y155.79 E.01497
G1 X165.128 Y155.268 E.01652
G1 X165.226 Y154.972 E.00978
G1 X165.59 Y155.058 F9000
;TYPE:External perimeter
G1 F1200
G1 X165.595 Y155.04 E.00059
G1 X165.789 Y154.685 E.01268
G1 X166.048 Y154.376 E.01264
G1 X166.362 Y154.122 E.01266
G1 X166.722 Y153.934 E.01273
G1 X167.127 Y153.819 E.0132
G1 X167.51 Y153.785 E.01206
G1 X167.911 Y153.829 E.01265
G1 X168.412 Y154.011 E.01671
G1 X168.651 Y154.143 E.00856
G1 X168.961 Y154.402 E.01267
G1 X169.214 Y154.716 E.01264
G1 X169.401 Y155.074 E.01266
G1 X169.515 Y155.461 E.01265
G1 X169.551 Y155.863 E.01265
G1 X169.508 Y156.265 E.01268
G1 X169.325 Y156.766 E.01672
G1 X169.194 Y157.005 E.00855
G1 X168.935 Y157.314 E.01264
G1 X168.62 Y157.568 E.01269
G1 X168.262 Y157.755 E.01266
G1 X167.875 Y157.869 E.01265
G1 X167.473 Y157.905 E.01265
G1 X167.071 Y157.861 E.01268
G1 X166.686 Y157.741 E.01264
G1 X166.332 Y157.547 E.01266
G1 X166.022 Y157.288 E.01267
G1 X165.768 Y156.974 E.01266
G1 X165.581 Y156.616 E.01266
G1 X165.468 Y156.229 E.01264
G1 X165.432 Y155.827 E.01265
G1 X165.489 Y155.377 E.01422
G1 X165.572 Y155.115 E.00862
G1 E-4.9 F3600
;WIPE_START
G1 F7200
G1 X165.59 Y155.058 E-.02839
G1 X165.595 Y155.04 E-.00887
G1 X165.789 Y154.685 E-.19216
G1 X166.048 Y154.376 E-.19152
G1 X166.362 Y154.122 E-.19184
G1 X166.722 Y153.934 E-.19291
G1 X167.127 Y153.819 E-.19998
G1 X167.51 Y153.785 E-.18264
G1 X167.911 Y153.829 E-.19162
G1 X168.412 Y154.011 E-.25319
G1 X168.651 Y154.143 E-.12969
G1 X168.961 Y154.402 E-.19188
G1 X169.153 Y154.64 E-.14531
;WIPE_END
G1 X154.206 Y81.569 F9000
G1 E7 F2400
;TYPE:Perimeter
G1 F1200
G1 X153.594 Y81.645 E.01934
G1 X152.886 Y81.593 E.02226
G1 X152.201 Y81.405 E.02227
G1 X151.567 Y81.086 E.02225
G1 X151.007 Y80.65 E.02225
G1 X150.543 Y80.113 E.02225
G1 X150.192 Y79.495 E.02228
G1 X149.969 Y78.822 E.02223
G1 X149.881 Y78.117 E.02228
G1 X149.933 Y77.409 E.02226
G1 X150.121 Y76.725 E.02224
G1 X150.44 Y76.09 E.02228
G1 X150.876 Y75.53 E.02225
G1 X151.413 Y75.066 E.02225
G1 X152.03 Y74.715 E.02226
G1 X152.704 Y74.492 E.02226
G1 X153.359 Y74.409 E.0207
G1 X154.103 Y74.455 E.02337
G1 X154.801 Y74.645 E.02268
G1 X155.436 Y74.963 E.02227
G1 X155.996 Y75.399 E.02225
G1 X156.46 Y75.937 E.02228
G1 X156.811 Y76.554 E.02226
G1 X157.034 Y77.228 E.02226
G1 X157.121 Y77.932 E.02224
G1 X157.082 Y78.515 E.01832
G1 X157.034 Y78.822 E.00974
G1 X156.881 Y79.325 E.01648
G1 X156.563 Y79.959 E.02224
G1 X156.126 Y80.519 E.02227
G1 X155.589 Y80.983 E.02225
G1 X154.972 Y81.334 E.02226
G1 X154.298 Y81.557 E.02226
G1 X154.266 Y81.561 E.00101
G1 X154.133 Y81.203 F9000
G1 F1200
G1 X153.557 Y81.27 E.01818
G1 X152.923 Y81.218 E.01995
G1 X152.311 Y81.044 E.01995
G1 X151.745 Y80.754 E.01994
G1 X151.246 Y80.358 E.01997
G1 X150.834 Y79.874 E.01993
G1 X150.525 Y79.318 E.01994
G1 X150.329 Y78.712 E.01997
G1 X150.256 Y78.08 E.01995
G1 X150.308 Y77.446 E.01995
G1 X150.482 Y76.834 E.01995
G1 X150.772 Y76.268 E.01994
G1 X151.168 Y75.769 E.01997
G1 X151.652 Y75.357 E.01993
G1 X152.208 Y75.048 E.01994
G1 X152.814 Y74.853 E.01996
G1 X153.396 Y74.785 E.01837
G1 X154.072 Y74.831 E.02124
G1 X154.692 Y75.006 E.0202
G1 X155.258 Y75.296 E.01994
G1 X155.757 Y75.691 E.01995
G1 X156.169 Y76.176 E.01995
G1 X156.478 Y76.732 E.01994
G1 X156.673 Y77.337 E.01993
G1 X156.746 Y77.969 E.01995
G1 X156.673 Y78.712 E.02341
G1 X156.52 Y79.215 E.01648
G1 X156.23 Y79.781 E.01994
G1 X155.835 Y80.28 E.01995
G1 X155.35 Y80.692 E.01995
G1 X154.794 Y81.001 E.01994
G1 X154.193 Y81.195 E.0198
G1 X154.061 Y80.838 F9000
;TYPE:External perimeter
G1 F1200
G1 X153.52 Y80.894 E.01705
G1 X152.96 Y80.843 E.01763
G1 X152.42 Y80.683 E.01766
G1 X151.922 Y80.421 E.01764
G1 X151.485 Y80.067 E.01763
G1 X151.125 Y79.634 E.01766
G1 X150.857 Y79.14 E.01762
G1 X150.69 Y78.603 E.01763
G1 X150.632 Y78.043 E.01765
G1 X150.683 Y77.483 E.01763
G1 X150.843 Y76.944 E.01763
G1 X151.105 Y76.446 E.01764
G1 X151.459 Y76.009 E.01763
G1 X151.892 Y75.649 E.01766
G1 X152.386 Y75.381 E.01762
G1 X152.923 Y75.214 E.01763
G1 X153.433 Y75.16 E.01608
G1 X154.042 Y75.207 E.01915
G1 X154.582 Y75.366 E.01765
G1 X155.08 Y75.628 E.01764
G1 X155.517 Y75.982 E.01763
G1 X155.877 Y76.415 E.01766
G1 X156.145 Y76.909 E.01762
G1 X156.312 Y77.447 E.01766
G1 X156.371 Y78.006 E.01762
G1 X156.319 Y78.566 E.01763
G1 X156.16 Y79.106 E.01765
G1 X155.898 Y79.604 E.01764
G1 X155.543 Y80.041 E.01765
G1 X155.111 Y80.4 E.01761
G1 X154.617 Y80.669 E.01764
G1 X154.119 Y80.823 E.01634
G1 E-4.9 F3600
;WIPE_START
G1 F7200
G1 X154.061 Y80.838 E-.02846
G1 X153.52 Y80.894 E-.25835
G1 X152.96 Y80.843 E-.2671
G1 X152.42 Y80.683 E-.26752
G1 X151.922 Y80.421 E-.26729
G1 X151.485 Y80.067 E-.26714
G1 X151.125 Y79.634 E-.26748
G1 X150.857 Y79.14 E-.26696
G1 X150.726 Y78.718 E-.2097
;WIPE_END
G1 X164.9 Y75.229 F9000
G1 E7 F2400
;TYPE:Perimeter
G1 F1200
G1 X164.768 Y74.843 E.01279
G1 X164.681 Y74.249 E.01882
G1 X164.717 Y73.699 E.01728
G1 X164.86 Y73.166 E.0173
G1 X165.103 Y72.672 E.01726
G1 X165.439 Y72.234 E.01731
G1 X165.853 Y71.871 E.01726
G1 X166.331 Y71.595 E.01731
G1 X166.88 Y71.414 E.01812
G1 X167.399 Y71.346 E.01641
G1 X167.949 Y71.382 E.01728
G1 X168.481 Y71.525 E.01727
G1 X168.976 Y71.768 E.01729
G1 X169.413 Y72.104 E.01728
G1 X169.777 Y72.518 E.01728
G1 X170.052 Y72.995 E.01726
G1 X170.229 Y73.517 E.01728
G1 X170.301 Y74.064 E.0173
G1 X170.265 Y74.614 E.01728
G1 X170.123 Y75.146 E.01726
G1 X169.879 Y75.641 E.0173
G1 X169.544 Y76.078 E.01726
G1 X169.129 Y76.441 E.01729
G1 X168.652 Y76.717 E.01728
G1 X168.13 Y76.894 E.01728
G1 X167.584 Y76.966 E.01727
G1 X167.034 Y76.93 E.01728
G1 X166.501 Y76.788 E.01729
G1 X166.007 Y76.544 E.01728
G1 X165.569 Y76.209 E.01729
G1 X165.206 Y75.794 E.01729
G1 X164.93 Y75.317 E.01728
G1 X164.92 Y75.286 E.00102
G1 X165.246 Y75.087 F9000
G1 F1200
G1 X165.22 Y75.037 E.00177
G1 X165.092 Y74.577 E.01497
G1 X165.056 Y74.212 E.0115
G1 X165.114 Y73.627 E.01843
G1 X165.263 Y73.173 E.01498
G1 X165.497 Y72.757 E.01497
G1 X165.809 Y72.395 E.01498
G1 X166.185 Y72.101 E.01497
G1 X166.616 Y71.884 E.01513
G1 X167.09 Y71.755 E.0154
G1 X167.547 Y71.721 E.01437
G1 X168.021 Y71.779 E.01497
G1 X168.59 Y71.99 E.01903
G1 X168.89 Y72.162 E.01084
G1 X169.252 Y72.474 E.01498
G1 X169.547 Y72.849 E.01496
G1 X169.762 Y73.276 E.01499
G1 X169.89 Y73.736 E.01497
G1 X169.926 Y74.212 E.01497
G1 X169.869 Y74.686 E.01497
G1 X169.658 Y75.255 E.01903
G1 X169.485 Y75.555 E.01086
G1 X169.174 Y75.917 E.01496
G1 X168.798 Y76.212 E.01498
G1 X168.372 Y76.427 E.01496
G1 X167.912 Y76.555 E.01497
G1 X167.436 Y76.591 E.01497
G1 X166.962 Y76.534 E.01497
G1 X166.508 Y76.385 E.01498
G1 X166.092 Y76.15 E.01498
G1 X165.73 Y75.839 E.01496
G1 X165.436 Y75.463 E.01497
G1 X165.273 Y75.14 E.01134
G1 X165.59 Y74.944 F9000
;TYPE:External perimeter
G1 F1200
G1 X165.581 Y74.927 E.0006
G1 X165.468 Y74.54 E.01264
G1 X165.432 Y74.175 E.0115
G1 X165.475 Y73.736 E.01383
G1 X165.595 Y73.351 E.01264
G1 X165.789 Y72.997 E.01266
G1 X166.048 Y72.687 E.01267
G1 X166.362 Y72.433 E.01266
G1 X166.722 Y72.246 E.01272
G1 X167.127 Y72.131 E.0132
G1 X167.51 Y72.097 E.01206
G1 X167.911 Y72.14 E.01265
G1 X168.412 Y72.322 E.01671
G1 X168.651 Y72.454 E.00856
G1 X168.961 Y72.713 E.01267
G1 X169.214 Y73.027 E.01264
G1 X169.401 Y73.385 E.01266
G1 X169.515 Y73.772 E.01265
G1 X169.551 Y74.175 E.01269
G1 X169.508 Y74.576 E.01265
G1 X169.325 Y75.077 E.01672
G1 X169.194 Y75.316 E.00855
G1 X168.935 Y75.626 E.01267
G1 X168.62 Y75.879 E.01267
G1 X168.262 Y76.066 E.01266
G1 X167.875 Y76.18 E.01265
G1 X167.473 Y76.216 E.01265
G1 X167.071 Y76.173 E.01268
G1 X166.686 Y76.052 E.01265
G1 X166.332 Y75.858 E.01266
G1 X166.022 Y75.6 E.01265
G1 X165.768 Y75.285 E.01269
G1 X165.618 Y74.997 E.01018
G1 E-4.9 F3600
;WIPE_START
G1 F7200
G1 X165.59 Y74.944 E-.02847
G1 X165.581 Y74.927 E-.00914
G1 X165.468 Y74.54 E-.1915
G1 X165.432 Y74.175 E-.17422
G1 X165.475 Y73.736 E-.20952
G1 X165.595 Y73.351 E-.19155
G1 X165.789 Y72.997 E-.19174
G1 X166.048 Y72.687 E-.19188
G1 X166.362 Y72.433 E-.19184
G1 X166.722 Y72.246 E-.19269
G1 X167.127 Y72.131 E-.19998
G1 X167.51 Y72.097 E-.18264
G1 X167.813 Y72.129 E-.14483
;WIPE_END
G1 X80.097 Y78 F9000
G1 E7 F2400
;TYPE:Perimeter
G1 F1200
G1 X80.052 Y78.616 E.01937
G1 X79.863 Y79.3 E.02225
G1 X79.545 Y79.935 E.02227
G1 X79.109 Y80.495 E.02225
G1 X78.571 Y80.959 E.02228
G1 X77.954 Y81.31 E.02226
G1 X77.28 Y81.533 E.02226
G1 X76.576 Y81.62 E.02224
G1 X75.868 Y81.569 E.02226
G1 X75.183 Y81.38 E.02228
G1 X74.549 Y81.062 E.02224
G1 X73.989 Y80.625 E.02227
G1 X73.525 Y80.088 E.02225
G1 X73.174 Y79.471 E.02226
G1 X72.951 Y78.797 E.02226
G1 X72.863 Y78.093 E.02225
G1 X72.915 Y77.385 E.02226
G1 X73.103 Y76.7 E.02227
G1 X73.422 Y76.066 E.02225
G1 X73.858 Y75.506 E.02225
G1 X74.395 Y75.042 E.02225
G1 X75.013 Y74.691 E.02228
G1 X75.686 Y74.468 E.02223
G1 X76.341 Y74.385 E.0207
G1 X77.083 Y74.43 E.02331
G1 X77.783 Y74.62 E.02274
