; generated by PrusaSlicer 2.9.4 on 2026-03-31 at 18:31:39 UTC

; 

; external perimeters extrusion width = 0.42mm
; perimeters extrusion width = 0.44mm
; infill extrusion width = 0.44mm
; solid infill extrusion width = 0.44mm
; top infill extrusion width = 0.40mm
; first layer extrusion width = 0.42mm


; printing object casefull.stl id:0 copy 0
; stop printing object casefull.stl id:0 copy 0

;TYPE:Custom
; Klipper Start G-code

G90
M83

M104 S150
M140 S60
G4 S30

G28
BED_MESH_PROFILE LOAD=default

G1 Z50 F240
G1 X2 Y10 F3000

M104 S220
M190 S60
M109 S220

G1 Z0.28 F240
G92 E0

; Prime line
G1 X2 Y140 E10 F1500
G1 X2.3 Y140 F5000
G92 E0
G1 X2.3 Y20 E10 F1200
G92 E0

; Second line
G1 X4.6 Y140 F5000
G1 X4.6 Y20 E10 F1200
G92 E0

; L shape
G1 X25 Y5 F1500
G1 X5 Y5 E5 F1200
G1 X5 Y25 E5 F1200
G92 E0
G21 ; set units to millimeters
G90 ; use absolute coordinates
M83 ; use relative distances for extrusion
; Filament gcode
M107
;LAYER_CHANGE
;Z:0.2
;HEIGHT:0.2
G1 E-7 F3600
G1 Z.2 F9000
G1 X54.393 Y67.547
G1 E7 F2400
M204 S500
;TYPE:Skirt/Brim
;WIDTH:0.42
G1 F1200
G1 X55.167 Y67.089 E.0282
G1 X57.289 Y66.21 E.07202
G1 X58.509 Y65.968 E.039
G1 X171.492 Y65.968 E3.5425
G1 X172.711 Y66.21 E.03897
G1 X174.833 Y67.089 E.07202
G1 X176.1 Y68.04 E.04967
G1 X176.558 Y68.815 E.02823
G1 X177.437 Y70.936 E.07199
G1 X177.68 Y72.156 E.039
G1 X177.68 Y157.845 E2.68672
G1 X177.437 Y159.065 E.039
G1 X176.558 Y161.187 E.07202
G1 X175.607 Y162.454 E.04967
G1 X174.833 Y162.912 E.0282
G1 X172.711 Y163.791 E.07202
G1 X171.492 Y164.034 E.03897
G1 X58.509 Y164.034 E3.5425
G1 X57.289 Y163.791 E.039
G1 X55.167 Y162.912 E.07202
G1 X53.9 Y161.961 E.04967
G1 X53.442 Y161.187 E.0282
G1 X52.563 Y159.065 E.07202
G1 X52.32 Y157.845 E.039
G1 X52.32 Y72.156 E2.68672
G1 X52.563 Y70.936 E.039
G1 X53.442 Y68.815 E.07199
G1 X54.357 Y67.595 E.04782
G1 E-4.9 F3600
;WIPE_START
G1 F7200
G1 X54.393 Y67.547 E-.0285
G1 X55.167 Y67.089 E-.42719
G1 X57.289 Y66.21 E-1.091
G1 X58.431 Y65.983 E-.55331
;WIPE_END
; printing object casefull.stl id:0 copy 0
G1 X150.694 Y77.468 F9000
G1 E7 F2400
;TYPE:Perimeter
;WIDTH:0.419999
G1 F1200
G1 X150.815 Y77.017 E.01464
G1 X151.063 Y76.516 E.01753
G1 X151.404 Y76.072 E.01755
G1 X151.824 Y75.703 E.01753
G1 X152.309 Y75.424 E.01754
G1 X152.839 Y75.244 E.01755
G1 X153.354 Y75.175 E.01629
G1 X153.936 Y75.207 E.01828
G1 X154.492 Y75.353 E.01802
G1 X154.994 Y75.6 E.01754
G1 X155.437 Y75.941 E.01753
G1 X155.806 Y76.362 E.01755
G1 X156.086 Y76.846 E.01753
G1 X156.265 Y77.376 E.01754
G1 X156.338 Y77.931 E.01755
G1 X156.306 Y78.437 E.0159
G1 X156.156 Y79.029 E.01915
G1 X155.909 Y79.531 E.01754
G1 X155.568 Y79.975 E.01755
G1 X155.147 Y80.343 E.01753
G1 X154.663 Y80.623 E.01753
G1 X154.133 Y80.803 E.01755
G1 X153.578 Y80.875 E.01755
G1 X153.02 Y80.839 E.01753
G1 X152.48 Y80.694 E.01753
G1 X151.978 Y80.446 E.01756
G1 X151.534 Y80.105 E.01755
G1 X151.166 Y79.685 E.01751
G1 X150.886 Y79.2 E.01756
G1 X150.706 Y78.67 E.01755
G1 X150.634 Y78.116 E.01752
G1 X150.67 Y77.557 E.01756
G1 X150.679 Y77.526 E.00101
G1 X151.061 Y77.541 F9000
G1 F1200
G1 X151.067 Y77.486 E.00173
G1 X151.219 Y77.024 E.01525
G1 X151.457 Y76.601 E.01522
G1 X151.774 Y76.233 E.01523
G1 X152.156 Y75.933 E.01523
G1 X152.589 Y75.714 E.01521
G1 X153.057 Y75.583 E.01524
G1 X153.492 Y75.549 E.01368
G1 X154.025 Y75.605 E.0168
G1 X154.485 Y75.756 E.01518
G1 X154.908 Y75.995 E.01523
G1 X155.276 Y76.311 E.01521
G1 X155.591 Y76.721 E.01621
G1 X155.795 Y77.127 E.01425
G1 X155.926 Y77.594 E.01521
G1 X155.963 Y78.079 E.01525
G1 X155.904 Y78.561 E.01523
G1 X155.753 Y79.022 E.01521
G1 X155.515 Y79.445 E.01522
G1 X155.198 Y79.814 E.01525
G1 X154.816 Y80.114 E.01523
G1 X154.382 Y80.333 E.01524
G1 X153.915 Y80.463 E.0152
G1 X153.43 Y80.5 E.01525
G1 X152.948 Y80.442 E.01522
G1 X152.487 Y80.29 E.01522
G1 X152.064 Y80.052 E.01522
G1 X151.752 Y79.795 E.01267
G1 X151.421 Y79.396 E.01625
G1 X151.186 Y78.949 E.01583
G1 X151.046 Y78.452 E.01619
G1 X151.009 Y77.968 E.01522
G1 X151.053 Y77.601 E.01159
G1 X151.426 Y77.614 F9000
;TYPE:External perimeter
G1 F1200
G1 X151.428 Y77.595 E.0006
G1 X151.551 Y77.202 E.01291
G1 X151.749 Y76.84 E.01294
G1 X152.013 Y76.524 E.01291
G1 X152.334 Y76.266 E.01291
G1 X152.699 Y76.075 E.01292
G1 X153.094 Y75.958 E.01292
G1 X153.462 Y75.925 E.01158
G1 X153.915 Y75.966 E.01426
G1 X154.307 Y76.089 E.01288
G1 X154.669 Y76.286 E.01292
G1 X154.985 Y76.55 E.01291
G1 X155.259 Y76.899 E.01391
G1 X155.435 Y77.236 E.01192
G1 X155.551 Y77.631 E.01291
G1 X155.588 Y78.042 E.01294
G1 X155.544 Y78.451 E.0129
G1 X155.42 Y78.845 E.01295
G1 X155.223 Y79.206 E.01289
G1 X154.959 Y79.522 E.01291
G1 X154.638 Y79.781 E.01293
G1 X154.273 Y79.972 E.01292
G1 X153.878 Y80.088 E.01291
G1 X153.467 Y80.125 E.01294
G1 X153.058 Y80.081 E.0129
G1 X152.664 Y79.958 E.01294
G1 X152.303 Y79.76 E.01291
G1 X152.006 Y79.516 E.01205
G1 X151.728 Y79.176 E.01377
G1 X151.537 Y78.81 E.01294
G1 X151.421 Y78.415 E.01291
G1 X151.384 Y78.005 E.01291
G1 X151.42 Y77.673 E.01047
G1 E-4.9 F3600
;WIPE_START
G1 F7200
G1 X151.426 Y77.614 E-.02817
G1 X151.428 Y77.595 E-.00907
G1 X151.551 Y77.202 E-.1956
G1 X151.749 Y76.84 E-.19599
G1 X152.013 Y76.524 E-.19559
G1 X152.334 Y76.266 E-.19562
G1 X152.699 Y76.075 E-.19568
G1 X153.094 Y75.958 E-.19568
G1 X153.462 Y75.925 E-.1755
G1 X153.915 Y75.966 E-.21605
G1 X154.307 Y76.089 E-.19515
G1 X154.669 Y76.286 E-.19576
G1 X154.84 Y76.429 E-.10614
;WIPE_END
G1 X166.741 Y74.703 F9000
G1 E7 F2400
;TYPE:Perimeter
G1 F1200
G1 X166.681 Y74.249 E.01436
G1 X166.717 Y73.699 E.01728
G1 X166.86 Y73.166 E.0173
G1 X167.103 Y72.672 E.01726
G1 X167.439 Y72.234 E.01731
G1 X167.853 Y71.871 E.01726
G1 X168.331 Y71.595 E.01731
G1 X168.881 Y71.413 E.01816
G1 X169.399 Y71.346 E.01638
G1 X169.949 Y71.382 E.01728
G1 X170.481 Y71.525 E.01727
G1 X170.976 Y71.768 E.01729
G1 X171.413 Y72.104 E.01728
G1 X171.777 Y72.518 E.01728
G1 X172.052 Y72.995 E.01726
G1 X172.229 Y73.517 E.01728
G1 X172.301 Y74.064 E.0173
G1 X172.266 Y74.614 E.01728
G1 X172.123 Y75.146 E.01727
G1 X171.879 Y75.641 E.0173
G1 X171.544 Y76.078 E.01726
G1 X171.129 Y76.441 E.01729
G1 X170.652 Y76.717 E.01728
G1 X170.13 Y76.894 E.01728
G1 X169.584 Y76.966 E.01727
G1 X169.034 Y76.93 E.01728
G1 X168.501 Y76.788 E.01729
G1 X168.007 Y76.544 E.01728
G1 X167.569 Y76.209 E.01729
G1 X167.206 Y75.794 E.01729
G1 X166.93 Y75.317 E.01728
G1 X166.753 Y74.795 E.01728
G1 X166.749 Y74.763 E.00101
G1 X167.107 Y74.631 F9000
G1 F1200
G1 X167.092 Y74.577 E.00176
G1 X167.056 Y74.101 E.01497
G1 X167.114 Y73.627 E.01497
G1 X167.263 Y73.173 E.01498
G1 X167.497 Y72.757 E.01497
G1 X167.809 Y72.395 E.01498
G1 X168.185 Y72.101 E.01497
G1 X168.616 Y71.884 E.01513
G1 X169.09 Y71.755 E.0154
G1 X169.547 Y71.721 E.01437
G1 X170.021 Y71.779 E.01497
G1 X170.59 Y71.99 E.01903
G1 X170.89 Y72.162 E.01084
G1 X171.252 Y72.474 E.01498
G1 X171.547 Y72.85 E.01498
G1 X171.72 Y73.173 E.01149
G1 X171.89 Y73.736 E.01844
G1 X171.926 Y74.212 E.01497
G1 X171.869 Y74.686 E.01497
G1 X171.658 Y75.255 E.01903
G1 X171.485 Y75.555 E.01086
G1 X171.174 Y75.917 E.01496
G1 X170.798 Y76.212 E.01498
G1 X170.372 Y76.427 E.01496
G1 X169.912 Y76.555 E.01497
G1 X169.436 Y76.591 E.01497
G1 X168.962 Y76.534 E.01497
G1 X168.508 Y76.385 E.01498
G1 X168.092 Y76.15 E.01498
G1 X167.73 Y75.839 E.01496
G1 X167.436 Y75.463 E.01497
G1 X167.22 Y75.037 E.01498
G1 X167.123 Y74.688 E.01136
G1 X167.473 Y74.558 F9000
;TYPE:External perimeter
G1 F1200
G1 X167.468 Y74.54 E.00059
G1 X167.432 Y74.138 E.01265
G1 X167.475 Y73.736 E.01268
G1 X167.595 Y73.351 E.01264
G1 X167.789 Y72.997 E.01266
G1 X168.048 Y72.687 E.01267
G1 X168.362 Y72.433 E.01266
G1 X168.722 Y72.246 E.01272
G1 X169.127 Y72.131 E.0132
G1 X169.51 Y72.097 E.01206
G1 X169.911 Y72.14 E.01265
G1 X170.412 Y72.322 E.01671
G1 X170.651 Y72.454 E.00856
G1 X170.961 Y72.713 E.01267
G1 X171.214 Y73.027 E.01264
G1 X171.387 Y73.351 E.01152
G1 X171.515 Y73.772 E.0138
G1 X171.551 Y74.175 E.01269
G1 X171.508 Y74.576 E.01265
G1 X171.325 Y75.077 E.01672
G1 X171.194 Y75.316 E.00855
G1 X170.935 Y75.626 E.01267
G1 X170.62 Y75.879 E.01267
G1 X170.262 Y76.066 E.01266
G1 X169.875 Y76.18 E.01265
G1 X169.473 Y76.216 E.01265
G1 X169.071 Y76.173 E.01268
G1 X168.686 Y76.052 E.01265
G1 X168.332 Y75.858 E.01266
G1 X168.022 Y75.6 E.01265
G1 X167.768 Y75.285 E.01269
G1 X167.581 Y74.927 E.01266
G1 X167.49 Y74.615 E.01019
G1 E-4.9 F3600
;WIPE_START
G1 F7200
G1 X167.473 Y74.558 E-.02825
G1 X167.468 Y74.54 E-.00887
G1 X167.432 Y74.138 E-.19171
G1 X167.475 Y73.736 E-.19204
G1 X167.595 Y73.351 E-.19155
G1 X167.789 Y72.997 E-.19174
G1 X168.048 Y72.687 E-.19188
G1 X168.362 Y72.433 E-.19184
G1 X168.722 Y72.246 E-.19269
G1 X169.127 Y72.131 E-.19998
G1 X169.51 Y72.097 E-.18264
G1 X169.911 Y72.14 E-.19157
G1 X170.199 Y72.245 E-.14524
;WIPE_END
G1 X154.038 Y149.211 F9000
G1 E7 F2400
;TYPE:Perimeter
G1 F1200
G1 X154.489 Y149.33 E.01462
G1 X154.991 Y149.577 E.01754
G1 X155.435 Y149.918 E.01755
G1 X155.804 Y150.339 E.01755
G1 X156.083 Y150.823 E.01752
G1 X156.263 Y151.353 E.01755
G1 X156.336 Y151.908 E.01755
G1 X156.299 Y152.466 E.01753
G1 X156.154 Y153.006 E.01753
G1 X155.932 Y153.46 E.01585
G1 X155.804 Y153.662 E.0075
G1 X155.435 Y154.082 E.01753
G1 X154.991 Y154.423 E.01755
G1 X154.489 Y154.671 E.01756
G1 X153.949 Y154.816 E.01753
G1 X153.391 Y154.852 E.01753
G1 X152.836 Y154.78 E.01755
G1 X152.306 Y154.6 E.01755
G1 X151.822 Y154.32 E.01753
G1 X151.401 Y153.952 E.01753
G1 X151.06 Y153.508 E.01755
G1 X150.813 Y153.006 E.01754
G1 X150.668 Y152.466 E.01753
G1 X150.631 Y151.908 E.01753
G1 X150.689 Y151.408 E.01578
G1 X150.847 Y150.901 E.01665
G1 X151.081 Y150.455 E.01579
G1 X151.401 Y150.049 E.01621
G1 X151.822 Y149.68 E.01755
G1 X152.306 Y149.401 E.01752
G1 X152.836 Y149.221 E.01755
G1 X153.352 Y149.152 E.01632
G1 X153.931 Y149.183 E.01818
G1 X153.98 Y149.196 E.00159
G1 X153.965 Y149.576 F9000
G1 F1200
G1 X154.021 Y149.582 E.00177
G1 X154.482 Y149.733 E.01521
G1 X154.906 Y149.972 E.01526
G1 X155.274 Y150.288 E.01521
G1 X155.574 Y150.67 E.01523
G1 X155.793 Y151.104 E.01524
G1 X155.926 Y151.601 E.01613
G1 X155.96 Y152.056 E.01431
G1 X155.902 Y152.538 E.01522
G1 X155.751 Y152.999 E.01521
G1 X155.512 Y153.422 E.01523
G1 X155.196 Y153.791 E.01523
G1 X154.813 Y154.091 E.01525
G1 X154.38 Y154.31 E.01521
G1 X153.912 Y154.44 E.01523
G1 X153.428 Y154.477 E.01522
G1 X152.946 Y154.419 E.01522
G1 X152.484 Y154.267 E.01525
G1 X152.061 Y154.029 E.01522
G1 X151.693 Y153.713 E.01521
G1 X151.393 Y153.33 E.01525
G1 X151.174 Y152.897 E.01521
G1 X151.043 Y152.429 E.01524
G1 X151.006 Y151.945 E.01522
G1 X151.065 Y151.463 E.01523
G1 X151.216 Y151.001 E.01524
G1 X151.455 Y150.578 E.01523
G1 X151.771 Y150.21 E.01521
G1 X152.153 Y149.91 E.01523
G1 X152.587 Y149.691 E.01524
G1 X153.054 Y149.56 E.01521
G1 X153.489 Y149.526 E.01368
G1 X153.906 Y149.57 E.01315
G1 X153.893 Y149.941 F9000
;TYPE:External perimeter
G1 F1200
G1 X153.911 Y149.943 E.00057
G1 X154.305 Y150.066 E.01294
G1 X154.666 Y150.263 E.01289
G1 X154.983 Y150.527 E.01293
G1 X155.241 Y150.848 E.01291
G1 X155.432 Y151.213 E.01292
G1 X155.551 Y151.638 E.01384
G1 X155.585 Y152.019 E.01199
G1 X155.541 Y152.428 E.0129
G1 X155.418 Y152.822 E.01294
G1 X155.221 Y153.183 E.01289
G1 X154.956 Y153.499 E.01293
G1 X154.636 Y153.758 E.01291
G1 X154.271 Y153.949 E.01292
G1 X153.875 Y154.065 E.01294
G1 X153.465 Y154.102 E.01291
G1 X153.055 Y154.058 E.01293
G1 X152.662 Y153.935 E.01291
G1 X152.3 Y153.737 E.01294
G1 X151.984 Y153.473 E.01291
G1 X151.726 Y153.153 E.01289
G1 X151.535 Y152.787 E.01294
G1 X151.418 Y152.392 E.01292
G1 X151.382 Y151.982 E.0129
G1 X151.426 Y151.572 E.01293
G1 X151.549 Y151.179 E.01291
G1 X151.746 Y150.817 E.01292
G1 X152.01 Y150.501 E.01291
G1 X152.331 Y150.243 E.01291
G1 X152.696 Y150.051 E.01293
G1 X153.091 Y149.935 E.01291
G1 X153.459 Y149.902 E.01158
G1 X153.833 Y149.936 E.01177
G1 E-4.9 F3600
;WIPE_START
G1 F7200
G1 X153.893 Y149.941 E-.0286
G1 X153.911 Y149.943 E-.0086
G1 X154.305 Y150.066 E-.19606
G1 X154.666 Y150.263 E-.19535
G1 X154.983 Y150.527 E-.19595
G1 X155.241 Y150.848 E-.19562
G1 X155.432 Y151.213 E-.19568
G1 X155.551 Y151.638 E-.20964
G1 X155.585 Y152.019 E-.18169
G1 X155.541 Y152.428 E-.1954
G1 X155.418 Y152.822 E-.19606
G1 X155.221 Y153.183 E-.19535
G1 X155.078 Y153.354 E-.106
;WIPE_END
G1 X166.901 Y154.772 F9000
G1 E7 F2400
;TYPE:Perimeter
G1 F1200
G1 X166.93 Y154.684 E.00291
G1 X167.206 Y154.207 E.01728
G1 X167.569 Y153.793 E.01726
G1 X168.007 Y153.457 E.01731
G1 X168.51 Y153.211 E.01756
G1 X169.053 Y153.069 E.0176
G1 X169.584 Y153.035 E.01668
G1 X170.13 Y153.107 E.01727
G1 X170.652 Y153.284 E.01728
G1 X171.129 Y153.56 E.01728
G1 X171.544 Y153.923 E.01729
G1 X171.879 Y154.361 E.01729
G1 X172.123 Y154.855 E.01728
G1 X172.266 Y155.387 E.01727
G1 X172.301 Y155.937 E.01728
G1 X172.229 Y156.484 E.0173
G1 X172.052 Y157.006 E.01728
G1 X171.777 Y157.483 E.01726
G1 X171.413 Y157.897 E.01728
G1 X170.976 Y158.233 E.01728
G1 X170.481 Y158.477 E.0173
G1 X169.949 Y158.619 E.01726
G1 X169.399 Y158.655 E.01728
G1 X168.852 Y158.583 E.0173
G1 X168.33 Y158.406 E.01728
G1 X167.853 Y158.13 E.01728
G1 X167.439 Y157.767 E.01726
G1 X167.103 Y157.329 E.01731
G1 X166.86 Y156.835 E.01726
G1 X166.717 Y156.303 E.01727
G1 X166.677 Y155.845 E.01441
G1 X166.753 Y155.206 E.02018
G1 X166.881 Y154.829 E.01248
G1 X167.245 Y154.915 F9000
G1 F1200
G1 X167.263 Y154.862 E.00175
G1 X167.497 Y154.446 E.01497
G1 X167.809 Y154.084 E.01498
G1 X168.185 Y153.79 E.01497
G1 X168.616 Y153.573 E.01513
G1 X169.09 Y153.444 E.0154
G1 X169.547 Y153.41 E.01437
G1 X170.021 Y153.468 E.01497
G1 X170.59 Y153.679 E.01903
G1 X170.89 Y153.851 E.01084
G1 X171.252 Y154.162 E.01496
G1 X171.547 Y154.538 E.01498
G1 X171.762 Y154.964 E.01496
G1 X171.89 Y155.424 E.01497
G1 X171.926 Y155.9 E.01497
G1 X171.869 Y156.374 E.01497
G1 X171.658 Y156.944 E.01906
G1 X171.485 Y157.244 E.01086
G1 X171.174 Y157.606 E.01496
G1 X170.798 Y157.9 E.01497
G1 X170.372 Y158.116 E.01498
G1 X169.912 Y158.244 E.01497
G1 X169.436 Y158.28 E.01497
G1 X168.962 Y158.222 E.01497
G1 X168.508 Y158.073 E.01498
G1 X168.092 Y157.839 E.01497
G1 X167.73 Y157.528 E.01496
G1 X167.436 Y157.152 E.01497
G1 X167.22 Y156.726 E.01498
G1 X167.092 Y156.266 E.01497
G1 X167.054 Y155.845 E.01325
G1 X167.114 Y155.316 E.01669
G1 X167.227 Y154.972 E.01135
G1 X167.59 Y155.058 F9000
;TYPE:External perimeter
G1 F1200
G1 X167.595 Y155.04 E.00059
G1 X167.789 Y154.685 E.01268
G1 X168.048 Y154.376 E.01264
G1 X168.362 Y154.122 E.01266
G1 X168.722 Y153.934 E.01273
G1 X169.127 Y153.819 E.0132
G1 X169.51 Y153.785 E.01206
G1 X169.911 Y153.829 E.01265
G1 X170.412 Y154.011 E.01671
G1 X170.651 Y154.143 E.00856
G1 X170.961 Y154.402 E.01267
G1 X171.214 Y154.716 E.01264
G1 X171.401 Y155.074 E.01266
G1 X171.515 Y155.461 E.01265
G1 X171.551 Y155.863 E.01265
G1 X171.508 Y156.265 E.01268
G1 X171.325 Y156.766 E.01672
G1 X171.194 Y157.005 E.00855
G1 X170.935 Y157.314 E.01264
G1 X170.62 Y157.568 E.01269
G1 X170.262 Y157.755 E.01266
G1 X169.875 Y157.869 E.01265
G1 X169.473 Y157.905 E.01265
G1 X169.071 Y157.861 E.01268
G1 X168.686 Y157.741 E.01264
G1 X168.332 Y157.547 E.01266
G1 X168.022 Y157.288 E.01267
G1 X167.768 Y156.974 E.01266
G1 X167.581 Y156.616 E.01266
G1 X167.468 Y156.229 E.01264
G1 X167.431 Y155.845 E.0121
G1 X167.475 Y155.425 E.01324
G1 X167.572 Y155.115 E.01018
G1 E-4.9 F3600
;WIPE_START
G1 F7200
G1 X167.59 Y155.058 E-.02839
G1 X167.595 Y155.04 E-.00887
G1 X167.789 Y154.685 E-.19216
G1 X168.048 Y154.376 E-.19152
G1 X168.362 Y154.122 E-.19184
G1 X168.722 Y153.934 E-.19291
G1 X169.127 Y153.819 E-.19998
G1 X169.51 Y153.785 E-.18264
G1 X169.911 Y153.829 E-.19162
G1 X170.412 Y154.011 E-.25319
G1 X170.651 Y154.143 E-.12969
G1 X170.961 Y154.402 E-.19188
G1 X171.153 Y154.64 E-.14531
;WIPE_END
G1 X79.329 Y152 F9000
G1 E7 F2400
;TYPE:Perimeter
G1 F1200
G1 X79.299 Y152.466 E.01464
G1 X79.154 Y153.006 E.01753
G1 X78.906 Y153.508 E.01756
G1 X78.565 Y153.952 E.01755
G1 X78.145 Y154.32 E.01751
G1 X77.66 Y154.6 E.01756
G1 X77.13 Y154.78 E.01755
G1 X76.576 Y154.852 E.01752
G1 X76.018 Y154.816 E.01753
G1 X75.477 Y154.671 E.01756
G1 X74.976 Y154.423 E.01753
G1 X74.532 Y154.082 E.01755
