; generated by PrusaSlicer 2.9.4 on 2026-03-30 at 19:22:19 UTC

; 

; external perimeters extrusion width = 0.42mm
; perimeters extrusion width = 0.44mm
; infill extrusion width = 0.44mm
; solid infill extrusion width = 0.44mm
; top infill extrusion width = 0.40mm
; first layer extrusion width = 0.42mm


; printing object casefull.stl id:0 copy 0
; stop printing object casefull.stl id:0 copy 0

;TYPE:Custom
; Klipper Start G-code

G90
M83

M104 S150
M140 S80
G4 S30

G28
BED_MESH_PROFILE LOAD=default

G1 Z50 F240
G1 X2 Y10 F3000

M104 S250
M190 S80
M109 S250

G1 Z0.28 F240
G92 E0

; Prime line
G1 X2 Y140 E10 F1500
G1 X2.3 Y140 F5000
G92 E0
G1 X2.3 Y20 E10 F1200
G92 E0

; Second line
G1 X4.6 Y140 F5000
G1 X4.6 Y20 E10 F1200
G92 E0

; L shape
G1 X25 Y5 F1500
G1 X5 Y5 E5 F1200
G1 X5 Y25 E5 F1200
G92 E0
G21 ; set units to millimeters
G90 ; use absolute coordinates
M83 ; use relative distances for extrusion
; Filament gcode
M107
;LAYER_CHANGE
;Z:0.2
;HEIGHT:0.2
G1 E-7 F3600
G1 Z.2 F9000
G1 X56.42 Y67.983
G1 E7 F2400
M204 S500
;TYPE:Skirt/Brim
;WIDTH:0.42
G1 F1200
G1 X57.194 Y67.525 E.0282
G1 X59.315 Y66.647 E.07198
G1 X60.535 Y66.404 E.039
G1 X169.519 Y66.404 E3.41712
G1 X170.738 Y66.647 E.03897
G1 X172.86 Y67.525 E.072
G1 X174.127 Y68.476 E.04967
G1 X174.585 Y69.251 E.02823
G1 X175.464 Y71.372 E.07199
G1 X175.707 Y72.592 E.039
G1 X175.707 Y158.281 E2.68672
G1 X175.464 Y159.501 E.039
G1 X174.585 Y161.623 E.07202
G1 X173.634 Y162.89 E.04967
G1 X172.86 Y163.348 E.0282
G1 X170.738 Y164.227 E.07202
G1 X169.518 Y164.47 E.039
G1 X60.535 Y164.47 E3.41709
G1 X59.315 Y164.227 E.039
G1 X57.194 Y163.348 E.07199
G1 X55.927 Y162.397 E.04967
G1 X55.468 Y161.623 E.02821
G1 X54.59 Y159.501 E.072
G1 X54.347 Y158.281 E.039
G1 X54.347 Y72.592 E2.68672
G1 X54.59 Y71.372 E.039
G1 X55.468 Y69.251 E.07198
G1 X56.384 Y68.031 E.04783
G1 E-4.9 F3600
;WIPE_START
G1 F7200
G1 X56.42 Y67.983 E-.0285
G1 X57.194 Y67.525 E-.42719
G1 X59.315 Y66.647 E-1.09038
G1 X60.459 Y66.419 E-.55393
;WIPE_END
; printing object casefull.stl id:0 copy 0
G1 X150.955 Y149.881 F9000
G1 E7 F2400
;TYPE:Perimeter
;WIDTH:0.419999
G1 F1200
G1 X151.422 Y149.478 E.01934
G1 X152.039 Y149.127 E.02226
G1 X152.713 Y148.904 E.02226
G1 X153.368 Y148.821 E.0207
G1 X154.11 Y148.866 E.02331
G1 X154.81 Y149.056 E.02274
G1 X155.445 Y149.375 E.02228
G1 X156.005 Y149.811 E.02225
G1 X156.469 Y150.348 E.02225
G1 X156.819 Y150.966 E.02227
G1 X157.043 Y151.64 E.02227
G1 X157.13 Y152.344 E.02224
G1 X157.079 Y153.052 E.02226
G1 X156.89 Y153.737 E.02228
G1 X156.572 Y154.371 E.02224
G1 X156.135 Y154.931 E.02227
G1 X155.598 Y155.395 E.02225
G1 X154.981 Y155.746 E.02226
G1 X154.307 Y155.969 E.02226
G1 X153.603 Y156.057 E.02225
G1 X152.895 Y156.005 E.02226
G1 X152.21 Y155.816 E.02228
G1 X151.576 Y155.498 E.02224
G1 X151.016 Y155.062 E.02225
G1 X150.551 Y154.525 E.02227
G1 X150.201 Y153.907 E.02227
G1 X149.978 Y153.233 E.02226
G1 X149.89 Y152.529 E.02225
G1 X149.941 Y151.821 E.02226
G1 X150.13 Y151.136 E.02228
G1 X150.449 Y150.502 E.02225
G1 X150.885 Y149.942 E.02225
G1 X150.91 Y149.92 E.00104
G1 X151.219 Y150.145 F9000
G1 F1200
G1 X151.661 Y149.769 E.01819
G1 X152.217 Y149.46 E.01994
G1 X152.823 Y149.265 E.01996
G1 X153.405 Y149.196 E.01838
G1 X154.079 Y149.242 E.02118
G1 X154.701 Y149.417 E.02026
G1 X155.267 Y149.708 E.01995
G1 X155.765 Y150.103 E.01993
G1 X156.177 Y150.588 E.01995
G1 X156.487 Y151.143 E.01993
G1 X156.682 Y151.749 E.01996
G1 X156.755 Y152.381 E.01995
G1 X156.704 Y153.015 E.01994
G1 X156.529 Y153.627 E.01996
G1 X156.239 Y154.193 E.01994
G1 X155.844 Y154.692 E.01995
G1 X155.359 Y155.104 E.01995
G1 X154.803 Y155.413 E.01994
G1 X154.198 Y155.608 E.01993
G1 X153.566 Y155.681 E.01995
G1 X152.931 Y155.63 E.01997
G1 X152.32 Y155.456 E.01992
G1 X151.753 Y155.165 E.01998
G1 X151.255 Y154.77 E.01993
G1 X150.843 Y154.285 E.01995
G1 X150.533 Y153.729 E.01996
G1 X150.338 Y153.124 E.01993
G1 X150.265 Y152.492 E.01995
G1 X150.317 Y151.858 E.01995
G1 X150.491 Y151.246 E.01995
G1 X150.781 Y150.68 E.01994
G1 X151.174 Y150.184 E.01984
G1 X151.482 Y150.408 F9000
;TYPE:External perimeter
G1 F1200
G1 X151.9 Y150.061 E.01703
G1 X152.395 Y149.792 E.01766
G1 X152.932 Y149.626 E.01762
G1 X153.442 Y149.572 E.01608
G1 X154.048 Y149.618 E.01906
G1 X154.591 Y149.778 E.01775
G1 X155.089 Y150.04 E.01764
G1 X155.526 Y150.394 E.01763
G1 X155.886 Y150.827 E.01766
G1 X156.154 Y151.321 E.01762
G1 X156.321 Y151.859 E.01766
G1 X156.38 Y152.418 E.01762
G1 X156.328 Y152.978 E.01763
G1 X156.168 Y153.518 E.01766
G1 X155.906 Y154.015 E.01762
G1 X155.552 Y154.453 E.01766
G1 X155.12 Y154.812 E.01761
G1 X154.625 Y155.081 E.01766
G1 X154.088 Y155.247 E.01762
G1 X153.529 Y155.306 E.01762
G1 X152.968 Y155.255 E.01766
G1 X152.429 Y155.095 E.01763
G1 X151.931 Y154.833 E.01764
G1 X151.494 Y154.479 E.01763
G1 X151.134 Y154.046 E.01766
G1 X150.866 Y153.552 E.01762
G1 X150.699 Y153.014 E.01766
G1 X150.64 Y152.455 E.01762
G1 X150.692 Y151.895 E.01763
G1 X150.852 Y151.355 E.01766
G1 X151.114 Y150.858 E.01762
G1 X151.442 Y150.452 E.01636
G1 E-4.9 F3600
;WIPE_START
G1 F7200
G1 X151.482 Y150.408 E-.02825
G1 X151.9 Y150.061 E-.25805
G1 X152.395 Y149.792 E-.2676
G1 X152.932 Y149.626 E-.26698
G1 X153.442 Y149.572 E-.2436
G1 X154.048 Y149.618 E-.28868
G1 X154.591 Y149.778 E-.26889
G1 X155.089 Y150.04 E-.26729
G1 X155.434 Y150.319 E-.21066
;WIPE_END
G1 X164.927 Y155.208 F9000
G1 E7 F2400
;TYPE:Perimeter
G1 F1200
G1 X164.957 Y155.12 E.00292
G1 X165.233 Y154.643 E.01728
G1 X165.596 Y154.229 E.01726
G1 X166.034 Y153.893 E.01731
G1 X166.537 Y153.647 E.01756
G1 X167.079 Y153.505 E.01757
G1 X167.61 Y153.471 E.01668
G1 X168.157 Y153.543 E.0173
G1 X168.679 Y153.72 E.01728
G1 X169.156 Y153.996 E.01728
G1 X169.57 Y154.359 E.01726
G1 X169.906 Y154.797 E.01731
G1 X170.15 Y155.291 E.01728
G1 X170.292 Y155.824 E.01729
G1 X170.328 Y156.374 E.01728
G1 X170.256 Y156.92 E.01727
G1 X170.079 Y157.442 E.01728
G1 X169.803 Y157.919 E.01728
G1 X169.44 Y158.334 E.01729
G1 X169.002 Y158.669 E.01729
G1 X168.508 Y158.913 E.01728
G1 X167.976 Y159.055 E.01726
G1 X167.426 Y159.091 E.01728
G1 X166.879 Y159.019 E.0173
G1 X166.357 Y158.842 E.01728
G1 X165.88 Y158.566 E.01728
G1 X165.466 Y158.203 E.01726
G1 X165.13 Y157.766 E.01728
G1 X164.886 Y157.271 E.0173
G1 X164.744 Y156.739 E.01726
G1 X164.705 Y156.221 E.01629
G1 X164.78 Y155.642 E.01831
G1 X164.908 Y155.265 E.01248
G1 X165.272 Y155.351 F9000
G1 F1200
G1 X165.29 Y155.298 E.00175
G1 X165.524 Y154.882 E.01497
G1 X165.835 Y154.52 E.01496
G1 X166.211 Y154.226 E.01497
G1 X166.643 Y154.009 E.01516
G1 X167.116 Y153.88 E.01537
G1 X167.573 Y153.846 E.01437
G1 X168.047 Y153.904 E.01497
G1 X168.617 Y154.115 E.01906
G1 X168.917 Y154.287 E.01084
G1 X169.279 Y154.599 E.01498
G1 X169.573 Y154.975 E.01497
G1 X169.789 Y155.401 E.01498
G1 X169.917 Y155.861 E.01497
G1 X169.953 Y156.337 E.01497
G1 X169.895 Y156.811 E.01497
G1 X169.685 Y157.38 E.01902
G1 X169.512 Y157.68 E.01086
G1 X169.201 Y158.042 E.01496
G1 X168.825 Y158.337 E.01498
G1 X168.047 Y158.659 E.0264
G1 X167.518 Y158.719 E.01669
G1 X166.989 Y158.659 E.01669
G1 X166.535 Y158.51 E.01498
G1 X166.119 Y158.275 E.01498
G1 X165.757 Y157.964 E.01496
G1 X165.463 Y157.588 E.01497
G1 X165.247 Y157.162 E.01498
G1 X165.119 Y156.702 E.01497
G1 X165.083 Y156.226 E.01497
G1 X165.155 Y155.704 E.01652
G1 X165.253 Y155.408 E.00978
G1 X165.617 Y155.494 F9000
;TYPE:External perimeter
G1 F1200
G1 X165.622 Y155.476 E.00059
G1 X165.816 Y155.122 E.01266
G1 X166.075 Y154.812 E.01267
G1 X166.389 Y154.558 E.01266
G1 X166.749 Y154.371 E.01272
G1 X167.153 Y154.256 E.01317
G1 X167.537 Y154.222 E.01209
G1 X167.938 Y154.265 E.01265
G1 X168.439 Y154.447 E.01671
G1 X168.678 Y154.579 E.00856
G1 X168.988 Y154.838 E.01267
G1 X169.241 Y155.152 E.01264
G1 X169.428 Y155.51 E.01266
G1 X169.542 Y155.898 E.01268
G1 X169.578 Y156.3 E.01265
G1 X169.535 Y156.701 E.01265
G1 X169.352 Y157.202 E.01672
G1 X169.22 Y157.441 E.00856
G1 X168.961 Y157.751 E.01267
G1 X168.647 Y158.004 E.01264
G1 X167.938 Y158.298 E.02407
G1 X167.5 Y158.341 E.0138
G1 X167.098 Y158.298 E.01268
G1 X166.713 Y158.177 E.01265
G1 X166.358 Y157.984 E.01267
G1 X166.049 Y157.725 E.01264
G1 X165.795 Y157.41 E.01269
G1 X165.608 Y157.052 E.01266
G1 X165.494 Y156.665 E.01265
G1 X165.458 Y156.263 E.01265
G1 X165.516 Y155.813 E.01423
G1 X165.599 Y155.551 E.00862
G1 E-4.9 F3600
;WIPE_START
G1 F7200
G1 X165.617 Y155.494 E-.02839
G1 X165.622 Y155.476 E-.00887
G1 X165.816 Y155.122 E-.19174
G1 X166.075 Y154.812 E-.19188
G1 X166.389 Y154.558 E-.19184
G1 X166.749 Y154.371 E-.19269
G1 X167.153 Y154.256 E-.19952
G1 X167.537 Y154.222 E-.18311
G1 X167.938 Y154.265 E-.19157
G1 X168.439 Y154.447 E-.25319
G1 X168.678 Y154.579 E-.12969
G1 X168.988 Y154.838 E-.19188
G1 X169.18 Y155.077 E-.14563
;WIPE_END
G1 X154.233 Y82.005 F9000
G1 E7 F2400
;TYPE:Perimeter
G1 F1200
G1 X153.62 Y82.081 E.01937
G1 X152.912 Y82.03 E.02226
G1 X152.228 Y81.841 E.02225
G1 X151.594 Y81.522 E.02225
G1 X151.033 Y81.086 E.02228
G1 X150.569 Y80.549 E.02225
G1 X150.219 Y79.932 E.02224
G1 X149.995 Y79.258 E.02227
G1 X149.908 Y78.553 E.02227
G1 X149.959 Y77.845 E.02226
G1 X150.148 Y77.161 E.02225
G1 X150.467 Y76.526 E.02228
G1 X150.903 Y75.966 E.02225
G1 X151.44 Y75.502 E.02225
G1 X152.057 Y75.152 E.02224
G1 X152.731 Y74.928 E.02227
G1 X153.386 Y74.846 E.0207
G1 X154.13 Y74.891 E.02337
G1 X154.828 Y75.081 E.02268
G1 X155.462 Y75.399 E.02224
G1 X156.023 Y75.836 E.0223
G1 X156.487 Y76.373 E.02225
G1 X156.837 Y76.99 E.02224
G1 X157.061 Y77.664 E.02227
G1 X157.148 Y78.369 E.02227
G1 X157.109 Y78.951 E.01829
G1 X157.061 Y79.258 E.00974
G1 X156.908 Y79.761 E.01648
G1 X156.589 Y80.395 E.02225
G1 X156.153 Y80.955 E.02225
G1 X155.616 Y81.42 E.02227
G1 X154.999 Y81.77 E.02224
G1 X154.325 Y81.994 E.02227
G1 X154.292 Y81.998 E.00104
G1 X154.16 Y81.639 F9000
G1 F1200
G1 X153.583 Y81.706 E.01821
G1 X152.949 Y81.654 E.01995
G1 X152.337 Y81.48 E.01995
G1 X151.771 Y81.19 E.01994
G1 X151.273 Y80.795 E.01993
G1 X150.861 Y80.31 E.01995
G1 X150.551 Y79.754 E.01996
G1 X150.356 Y79.148 E.01996
G1 X150.283 Y78.516 E.01995
G1 X150.335 Y77.882 E.01995
G1 X150.509 Y77.27 E.01995
G1 X150.799 Y76.704 E.01994
G1 X151.194 Y76.206 E.01993
G1 X151.679 Y75.794 E.01995
G1 X152.235 Y75.484 E.01996
G1 X152.841 Y75.289 E.01996
G1 X153.423 Y75.221 E.01837
G1 X154.099 Y75.267 E.02124
G1 X154.719 Y75.442 E.0202
G1 X155.285 Y75.732 E.01994
G1 X155.783 Y76.127 E.01993
G1 X156.195 Y76.612 E.01995
G1 X156.505 Y77.168 E.01996
G1 X156.7 Y77.773 E.01993
G1 X156.773 Y78.405 E.01995
G1 X156.7 Y79.148 E.02341
G1 X156.547 Y79.651 E.01648
G1 X156.257 Y80.218 E.01997
G1 X155.862 Y80.716 E.01993
G1 X155.377 Y81.128 E.01995
G1 X154.821 Y81.438 E.01996
G1 X154.219 Y81.631 E.01982
G1 X154.087 Y81.274 F9000
;TYPE:External perimeter
G1 F1200
G1 X153.547 Y81.331 E.01703
G1 X152.986 Y81.279 E.01767
G1 X152.447 Y81.119 E.01763
G1 X151.949 Y80.857 E.01764
G1 X151.512 Y80.503 E.01763
G1 X151.152 Y80.071 E.01763
G1 X150.884 Y79.576 E.01765
G1 X150.717 Y79.039 E.01763
G1 X150.658 Y78.479 E.01766
G1 X150.71 Y77.919 E.01763
G1 X150.87 Y77.38 E.01763
G1 X151.132 Y76.882 E.01764
G1 X151.486 Y76.445 E.01763
G1 X151.918 Y76.085 E.01763
G1 X152.413 Y75.817 E.01765
G1 X152.95 Y75.65 E.01763
G1 X153.46 Y75.596 E.01608
G1 X154.068 Y75.643 E.01912
G1 X154.609 Y75.803 E.01769
G1 X155.107 Y76.065 E.01764
G1 X155.544 Y76.419 E.01763
G1 X155.904 Y76.851 E.01763
G1 X156.172 Y77.346 E.01765
G1 X156.339 Y77.883 E.01763
G1 X156.398 Y78.442 E.01762
G1 X156.346 Y79.003 E.01767
G1 X156.186 Y79.542 E.01763
G1 X155.924 Y80.04 E.01764
G1 X155.57 Y80.477 E.01763
G1 X155.138 Y80.837 E.01763
G1 X154.643 Y81.105 E.01765
G1 X154.145 Y81.26 E.01635
G1 E-4.9 F3600
;WIPE_START
G1 F7200
G1 X154.087 Y81.274 E-.02834
G1 X153.547 Y81.331 E-.25792
G1 X152.986 Y81.279 E-.26762
G1 X152.447 Y81.119 E-.26707
G1 X151.949 Y80.857 E-.26729
G1 X151.512 Y80.503 E-.26714
G1 X151.152 Y80.071 E-.26711
G1 X150.884 Y79.576 E-.26737
G1 X150.753 Y79.153 E-.21014
;WIPE_END
G1 X164.927 Y75.666 F9000
G1 E7 F2400
;TYPE:Perimeter
G1 F1200
G1 X164.794 Y75.279 E.01283
G1 X164.708 Y74.685 E.01882
G1 X164.744 Y74.135 E.01728
G1 X164.886 Y73.602 E.01729
G1 X165.13 Y73.108 E.01728
G1 X165.466 Y72.671 E.01728
G1 X165.88 Y72.307 E.01728
G1 X166.357 Y72.031 E.01728
G1 X166.907 Y71.85 E.01815
G1 X167.426 Y71.782 E.01641
G1 X167.976 Y71.818 E.01728
G1 X168.508 Y71.961 E.01727
G1 X169.002 Y72.204 E.01726
G1 X169.44 Y72.54 E.01731
G1 X169.803 Y72.954 E.01726
G1 X170.079 Y73.432 E.01731
G1 X170.256 Y73.954 E.01728
G1 X170.328 Y74.5 E.01727
G1 X170.292 Y75.05 E.01728
G1 X170.15 Y75.582 E.01726
G1 X169.906 Y76.077 E.0173
G1 X169.57 Y76.514 E.01728
G1 X169.156 Y76.878 E.01728
G1 X168.679 Y77.153 E.01726
G1 X168.157 Y77.331 E.01729
G1 X167.61 Y77.403 E.0173
G1 X167.06 Y77.367 E.01728
G1 X166.528 Y77.224 E.01727
G1 X166.034 Y76.98 E.01728
G1 X165.596 Y76.645 E.01729
G1 X165.233 Y76.231 E.01726
G1 X164.957 Y75.753 E.01731
G1 X164.947 Y75.722 E.00102
G1 X165.272 Y75.523 F9000
G1 F1200
G1 X165.247 Y75.473 E.00175
G1 X165.119 Y75.013 E.01497
G1 X165.083 Y74.648 E.0115
G1 X165.141 Y74.063 E.01843
G1 X165.29 Y73.609 E.01498
G1 X165.524 Y73.194 E.01494
G1 X165.835 Y72.831 E.01499
G1 X166.211 Y72.537 E.01497
G1 X166.643 Y72.32 E.01516
G1 X167.116 Y72.192 E.01536
G1 X167.573 Y72.157 E.01437
G1 X168.047 Y72.215 E.01497
G1 X168.617 Y72.426 E.01906
G1 X168.917 Y72.599 E.01086
G1 X169.279 Y72.91 E.01496
G1 X169.573 Y73.286 E.01497
G1 X169.789 Y73.712 E.01498
G1 X169.917 Y74.172 E.01497
G1 X169.953 Y74.648 E.01497
G1 X169.895 Y75.122 E.01497
G1 X169.685 Y75.691 E.01902
G1 X169.512 Y75.991 E.01086
G1 X169.201 Y76.353 E.01496
G1 X168.825 Y76.648 E.01498
G1 X168.399 Y76.863 E.01496
G1 X167.939 Y76.991 E.01497
G1 X167.463 Y77.027 E.01497
G1 X166.989 Y76.97 E.01497
G1 X166.535 Y76.821 E.01498
G1 X166.119 Y76.586 E.01498
G1 X165.757 Y76.275 E.01496
G1 X165.463 Y75.899 E.01497
G1 X165.299 Y75.576 E.01136
G1 X165.617 Y75.38 F9000
;TYPE:External perimeter
G1 F1200
G1 X165.608 Y75.364 E.00058
G1 X165.494 Y74.976 E.01268
G1 X165.458 Y74.611 E.0115
G1 X165.502 Y74.172 E.01383
G1 X165.622 Y73.787 E.01264
G1 X165.816 Y73.433 E.01266
G1 X166.075 Y73.123 E.01267
G1 X166.389 Y72.87 E.01264
G1 X166.749 Y72.682 E.01273
G1 X167.153 Y72.567 E.01317
G1 X167.537 Y72.533 E.01209
G1 X167.938 Y72.576 E.01265
G1 X168.439 Y72.758 E.01671
G1 X168.678 Y72.89 E.00856
G1 X168.988 Y73.149 E.01267
G1 X169.241 Y73.463 E.01264
G1 X169.428 Y73.821 E.01266
G1 X169.542 Y74.209 E.01268
G1 X169.578 Y74.611 E.01265
G1 X169.535 Y75.012 E.01265
G1 X169.352 Y75.513 E.01672
G1 X169.22 Y75.752 E.00856
G1 X168.961 Y76.062 E.01267
G1 X168.647 Y76.315 E.01264
G1 X168.289 Y76.502 E.01266
G1 X167.902 Y76.616 E.01265
G1 X167.5 Y76.652 E.01265
G1 X167.098 Y76.609 E.01268
G1 X166.713 Y76.488 E.01265
G1 X166.358 Y76.295 E.01267
G1 X166.049 Y76.036 E.01264
G1 X165.795 Y75.721 E.01269
G1 X165.645 Y75.433 E.01018
G1 E-4.9 F3600
;WIPE_START
G1 F7200
G1 X165.617 Y75.38 E-.02847
G1 X165.608 Y75.364 E-.00872
G1 X165.494 Y74.976 E-.19209
G1 X165.458 Y74.611 E-.17422
G1 X165.502 Y74.172 E-.20957
G1 X165.622 Y73.787 E-.19155
G1 X165.816 Y73.433 E-.19174
G1 X166.075 Y73.123 E-.19188
G1 X166.389 Y72.87 E-.19154
G1 X166.749 Y72.682 E-.19291
G1 X167.153 Y72.567 E-.19952
G1 X167.537 Y72.533 E-.18311
G1 X167.84 Y72.565 E-.14468
;WIPE_END
G1 X80.124 Y78.437 F9000
G1 E7 F2400
;TYPE:Perimeter
G1 F1200
G1 X80.079 Y79.052 E.01933
G1 X79.89 Y79.737 E.02228
G1 X79.572 Y80.371 E.02224
G1 X79.135 Y80.931 E.02227
G1 X78.598 Y81.395 E.02225
G1 X77.981 Y81.746 E.02226
G1 X77.307 Y81.969 E.02226
G1 X76.603 Y82.057 E.02225
G1 X75.895 Y82.005 E.02226
G1 X75.21 Y81.816 E.02228
G1 X74.576 Y81.498 E.02224
G1 X74.016 Y81.062 E.02225
G1 X73.551 Y80.525 E.02227
G1 X73.201 Y79.907 E.02227
G1 X72.978 Y79.233 E.02226
G1 X72.89 Y78.529 E.02225
G1 X72.941 Y77.821 E.02226
G1 X73.13 Y77.136 E.02228
G1 X73.449 Y76.502 E.02225
G1 X73.885 Y75.942 E.02225
G1 X74.422 Y75.478 E.02225
G1 X75.039 Y75.127 E.02226
G1 X75.713 Y74.904 E.02226
G1 X76.368 Y74.821 E.0207
G1 X77.11 Y74.866 E.02331
G1 X77.81 Y75.057 E.02275
G1 X78.445 Y75.375 E.02227
